!!!OTL: OHNE LIEB UND OHNE WEIN
!!!ARE: Europa, Mitteleuropa, Deutschland
!!!SCT: B0334
!!!YEM: Copyright 1995, estate of Helmut Schaffrath.
**kern
*ICvox
*Ivox
*M2/4
*k[f#c#g#]
*A:
=1
{8.a
32cc#
32b
8a
8e
=2
8.cc#
32ee
32dd
4cc#}
=3
{8b
8b
16b
16dd
16f#
16b
=4
8a
8g#
4a}
=5
{8.a
32cc#
32b
8a
8e
=6
8.cc#
32ee
32dd
4cc#}
=7
{8b
8b
16b
16dd
16f#
16b
=8
8a
8g#
4a}
=9
{8b
16g#
16a
8b
16g#
16a
=10
16b
16dd
16cc#
16ee
4dd}
=11
{8cc#
8ee
8ff#
16ee
16dd
=12
4cc#
4b}
=13
{8.a
32cc#
32b
8a
8e
=14
8.cc#
32ee
32dd
4cc#}
=15
{8b
8b
16b
16dd
16f#
16b
=16
8a
8g#
4a}
==
!!!AGN: Trink - Lied
!!!ONB: ESAC (Essen Associative Code) Database: BOEHME
!!!AMT: simple duple
!!!AIN: vox
!!!EED: Helmut Schaffrath
!!!EEV: 1.0
*-
